X:2
T:Dream Valley of Glendaruel
T:Harmony 1
R:March
C:John MacLellan
O:Dunoon, UK
M:3/4
L:1/8
Q:"80 bpm"
K:D
[| {g}A>B {Gdc}d2 {e}A2 | {g}f>g {ag}a2 {Gdc}d2 | {g}e>f {gf}(g2 g)B | {g}fd {gfg}f2 {g}e2 |
{g}f>e {Gdc}df {AGAG}A2 | {ag}a>g {a}fa {Gdc}d2 | {gde}d>c {gBd}B2 {e}G{gf}g | {a}e>c {Gdc}d4 |
{g}A>B f2 {e}f2 | {g}d4 {ag}a2 | e>f {g}e4 | {g}e2 d2 c2 |
{g}d2 f2 a2 | d>e {g}de {g}(f2 | f2) {gf}g4 | {ag}a>g {a}g2 f2 ||
{g}f>g {ag}a2 {Gdc}d2 | {gf}gf {gfg}f2 {g}e2 | {g}f>g {ag}a2 {Gdc}d>c | {gBd}Be {gcd}c2 {e}A2 |
{g}f>e {Gdc}df {AGAG}A2 | {ag}a>g {a}fa {Gdc}d2 | {gde}d>e {gf}g4 | {ag}a>g {a}g2 f2 |
{g}f>g f4 | {g}e2 d2 {ag}(a2 | a2) f4 | g2 e4 |
{ag}a2 f2 a2 | f2 af {g}(f2 | f2) {gf}g4 | {ag}a>g {a}g2 f2 |]

